!!!COM: Josquin des Prez
!!!CDT: ~1450-1521/08/27
!!!OTL@@LAT: Ave verum corpus
!!!AGN: Motet
!!!SCT: NJE 21.2
!!!SCA: New Josquin Edition 21.2
!!!voices: 2-3
**kern	**kern	**kern
*staff3	*staff2	*staff1
*Ivox	*Ivox	*Ivox
*I"Altus	*I"Superius2	*I"Superius1
*I'A	*I'S2	*I'S1
*>[A,B,C,D,E,F]	*>[A,B,C,D,E,F]	*>[A,B,C,D,E,F]
*>A	*>A	*>A
*clefGv2	*clefG2	*clefG2
*k[]	*k[]	*k[]
*M2/1	*M2/1	*M2/1
*met(C|)	*met(C|)	*met(C|)
=1-	=1-	=1-
0r	0f	0r
=2	=2	=2
0r	1g	0r
.	[1a	.
=3	=3	=3
0r	2a/]	0cc
.	2f/	.
.	[1f	.
=4	=4	=4
0r	1f]	1dd
.	[1cc	[1ee
=5	=5	=5
0r	2cc\]	2ee\]
.	4b-i\	2cc\
.	4a/	.
.	2.a/	[1cc
.	4f/	.
=6	=6	=6
0r	0f	1cc]
.	.	1ff
=7	=7	=7
0r	1r	1ee
.	[1b-	[1dd
=8	=8	=8
0r	1b-]	1dd]
.	1a	1cc
=9	=9	=9
0r	1g	1r
.	1f	1ff
=10	=10	=10
0r	0g	2ee\
.	.	1dd
.	.	4cc\
.	.	4b-i\
=11	=11	=11
0r	[0a	1cc
.	.	1f
=12	=12	=12
0r	0a]	1r
.	.	1cc
=13	=13	=13
0r	0r	1dd
.	.	1ff
=14	=14	=14
0r	0g	2.ee\
.	.	4dd\
.	.	2ee\
.	.	[2dd\
=15	=15	=15
0r	0f	4dd\]
.	.	4cc\
.	.	4dd\
.	.	4cc\
.	.	2dd\
.	.	[2cc\
=16	=16	=16
0r	0e	2cc\]
.	.	4b-i\
.	.	4a/
.	.	1g
=17	=17	=17
0r	0f	1f
.	.	1ff
=18	=18	=18
0r	0g	1ee
.	.	1dd
=19	=19	=19
0r	1.a	1cc
.	.	[1ff
.	2f/	.
=20	=20	=20
0r	1f	1ff]
.	1g	1ee
=21	=21	=21
0r	1b-i	1dd
.	[1a	[1cc
=22	=22	=22
0r	2a/]	2cc\]
.	2g/	2b-i\
.	[1f	1a
=23	=23	=23
0r	2f/]	2.g/
.	4e/	.
.	4d/	4f/
.	1e	1g
=24	=24	=24
0r	0fl	0fl
!!LO:LB:i:g=z
=25||	=25||	=25||
*>B	*>B	*>B
*clefGv2	*clefG2	*clefG2
*k[]	*k[]	*k[]
*M2/1	*M2/1	*M2/1
*met(C|)	*met(C|)	*met(C|)
!!!OMD: Vere passum
!!section: Vere passum
2.F/	0f	0r
4G/	.	.
2A/	.	.
[2B-i\	.	.
=26	=26	=26
4B-\]	1g	0r
4G/	.	.
2.c\	.	.
.	[1a	.
4B-i\	.	.
4A/	.	.
4G/	.	.
=27	=27	=27
2F/	2a/]	0cc
1f	2f/	.
.	[1f	.
2e\	.	.
=28	=28	=28
1d	1f]	1dd
[1c	[1cc	[1ee
=29	=29	=29
2c\]	2cc\]	2ee\]
4d\	4b-i\	2cc\
4e\	4a/	.
[1f	2.a/	[1cc
.	4f/	.
=30	=30	=30
2f\]	0f	1cc]
2e\	.	.
1d	.	1ff
=31	=31	=31
1c	1r	1ee
[1B-	[1b-	[1dd
=32	=32	=32
2B-\]	1b-]	1dd]
2A/	.	.
2F/	1a	1cc
2f\	.	.
=33	=33	=33
2e\	1g	1r
2c\	.	.
1d	1f	1ff
=34	=34	=34
2c\	0g	2ee\
1B-i	.	1dd
4A/	.	4cc\
4G/	.	4b-i\
=35	=35	=35
[0F	[0a	1cc
.	.	1f
=36	=36	=36
1F]	0a]	1r
[1f	.	1cc
=37	=37	=37
2f\]	0r	1dd
2e\	.	.
1d	.	1ff
=38	=38	=38
2.c\	0g	2.ee\
4B-i\	.	4dd\
2.G/	.	2ee\
.	.	[2dd\
4A/	.	.
=39	=39	=39
2.B-i\	0f	4dd\]
.	.	4cc\
.	.	4dd\
4A/	.	4cc\
2.F/	.	2dd\
.	.	[2cc\
4G/	.	.
=40	=40	=40
2.A/	0e	2cc\]
.	.	4b-i\
4B-i\	.	4a/
1c	.	1g
=41	=41	=41
2F/	0f	1f
2.f\	.	.
.	.	1ff
4e\	.	.
2d\	.	.
=42	=42	=42
1c	0g	1ee
2.B-i\	.	1dd
4A/	.	.
=43	=43	=43
2F/	1.a	1cc
1f	.	.
.	.	[1ff
2e\	2f/	.
=44	=44	=44
1d	1f	1ff]
1c	1g	1ee
=45	=45	=45
2.B-i\	1b-i	1dd
4A/	.	.
[1F	[1a	[1cc
=46	=46	=46
2F/]	2a/]	2cc\]
2G/	2g/	2b-i\
2A/	[1f	1a
2B-i\	.	.
=47	=47	=47
2.c\	2f/]	2.g/
.	4e/	.
4d\	4d/	4f/
1c	1e	1g
=48	=48	=48
0Fl	0fl	0fl
!!LO:LB:i:g=z
=49||	=49||	=49||
*>C	*>C	*>C
*clefGv2	*clefG2	*clefG2
*k[]	*k[]	*k[]
*M2/1	*M2/1	*M2/1
*met(C|)	*met(C|)	*met(C|)
!!!OMD: Cujus latus
!!section: Cujus latus
0r	1.a	0r
.	2b-i\	.
=50	=50	=50
0r	1cc	0r
.	1dd	.
=51	=51	=51
0r	1.cc	1.a
.	4b-i\	2b-i\
.	4a/	.
=52	=52	=52
0r	2a/	1cc
.	2cc\	.
.	1b-i	1dd
=53	=53	=53
0r	1.a	1.cc
.	4g/	4b-i\
.	4f/	4a/
=54	=54	=54
0r	1f	2a/
.	.	2cc\
.	1g	1b-i
=55	=55	=55
0r	2.a/	1.a
.	4b-i\	.
.	2cc\	.
.	[2dd\	4g/
.	.	4f/
=56	=56	=56
0r	4dd\]	1f
.	4cc\	.
.	2a/	.
.	2.b-i\	1g
.	4a/	.
=57	=57	=57
0r	2.f/	2.a/
.	4e/	4g/
.	2c/	4a/
.	.	4g/
.	[2d/	[2b-i\
=58	=58	=58
0r	4d/]	4b-\]
.	4c/	4a/
.	2A/	1a
.	1B-i	.
.	.	2g/
=59	=59	=59
0r	1A	2.a/
.	.	4b-i\
.	1r	2cc\
.	.	[2f/
=60	=60	=60
0r	0a	2f/]
.	.	4e/
.	.	4d/
.	.	2c/
.	.	2d/
=61	=61	=61
0r	1g	1e
.	[1f	[1a
=62	=62	=62
0r	2f/]	1a]
.	4e/	.
.	4d/	.
.	2e/	1g
.	2c/	.
=63	=63	=63
0r	2r	1.f
.	1a	.
.	4g/	4e/
.	4f/	4d/
=64	=64	=64
0r	2g/	2e/
.	2a/	2c/
.	2f/	2d/
.	[2a/	2c/
=65	=65	=65
0r	2a/]	4d/
.	.	4c/
.	4g/	1f
.	4f/	.
.	1g	.
.	.	2e/
=66	=66	=66
0r	1.f	4f/
.	.	4g/
.	.	4a/
.	.	4b-i\
.	.	2cc\
.	4e/	[2dd\
.	4d/	.
=67	=67	=67
0r	2.f/	4dd\]
.	.	4cc\
.	.	2.a/
.	4e/	.
.	2.c/	.
.	.	4b-i\
.	.	[2cc\
.	4d/	.
=68	=68	=68
0r	2.e/	4cc\]
.	.	4b-i\
.	.	2.g/
.	4f/	.
.	2.g/	.
.	.	4a/
.	.	[2b-i\
.	4f/	.
=69	=69	=69
0r	2.d/	4b-\]
.	.	4a/
.	.	2.f/
.	4c/	.
.	2.d/	.
.	.	4g/
.	.	[2a/
.	4e/	.
=70	=70	=70
0r	4f/	2a/]
.	4c/	.
.	1f	2f/
.	.	1g
.	2e/	.
=71	=71	=71
0r	0fl	0fl
!!LO:LB:i:g=z
=72||	=72||	=72||
*>D	*>D	*>D
*clefGv2	*clefG2	*clefG2
*k[b-]	*k[]	*k[]
*M2/1	*M2/1	*M2/1
*met(C|)	*met(C|)	*met(C|)
!!!OMD: Esto nobis
!!section: Esto nobis
1.F	1.a	0r
2G/	2b-i\	.
=73	=73	=73
1A	1cc	0r
1B-	1dd	.
=74	=74	=74
1.F	1.cc	1.a
2G/	4b-i\	2b-i\
.	4a/	.
=75	=75	=75
2A/	2a/	1cc
2F/	2cc\	.
2.B-\	1b-i	1dd
4A/	.	.
=76	=76	=76
1.F	1.a	1.cc
4E/	4g/	4b-i\
4D/	4f/	4a/
=77	=77	=77
2D/	1f	2a/
2F/	.	2cc\
1E	1g	1b-i
=78	=78	=78
2r	2.a/	1.a
1F	.	.
.	4b-i\	.
.	2cc\	.
4E/	[2dd\	4g/
4D/	.	4f/
=79	=79	=79
2D/	4dd\]	1f
.	4cc\	.
2F/	2a/	.
1E	2.b-i\	1g
.	4a/	.
=80	=80	=80
2r	2.f/	2.a/
1F	.	.
.	4e/	4g/
.	2c/	4a/
.	.	4g/
4E/	[2d/	[2b-i\
4D/	.	.
=81	=81	=81
2D/	4d/]	4b-\]
.	4c/	4a/
2F/	2A/	1a
1E	1B-i	.
.	.	2g/
=82	=82	=82
2r	1A	2.a/
1F	.	.
.	.	4b-i\
.	1r	2cc\
4E/	.	[2f/
4D/	.	.
=83	=83	=83
2.F/	0a	2f/]
.	.	4e/
4G/	.	4d/
2.A/	.	2c/
.	.	2d/
4B-\	.	.
=84	=84	=84
2.c\	1g	1e
8d\L	.	.
8e\J	.	.
2f\	[1f	[1a
[2F/	.	.
=85	=85	=85
4F/]	2f/]	1a]
4G/	.	.
4A/	4e/	.
4B-\	4d/	.
1c	2e/	1g
.	2c/	.
=86	=86	=86
1r	2r	1.f
.	1a	.
1F	.	.
.	4g/	4e/
.	4f/	4d/
=87	=87	=87
2.c\	2g/	2e/
.	2a/	2c/
4A/	.	.
2B-\	2f/	2d/
2A/	[2a/	2c/
=88	=88	=88
1F	2a/]	4d/
.	.	4c/
.	4g/	1f
.	4f/	.
2r	1g	.
2C/	.	2e/
=89	=89	=89
4D/	1.f	4f/
4E/	.	4g/
4F/	.	4a/
4G/	.	4b-i\
2A/	.	2cc\
[2B-\	4e/	[2dd\
.	4d/	.
=90	=90	=90
4B-\]	2.f/	4dd\]
4A/	.	4cc\
2.F/	.	2.a/
.	4e/	.
.	2.c/	.
4G/	.	4b-i\
[2A/	.	[2cc\
.	4d/	.
=91	=91	=91
4A/]	2.e/	4cc\]
4B-\	.	4b-i\
2.c\	.	2.g/
.	4f/	.
.	2.g/	.
4B-\	.	4a/
[2G/	.	[2b-\
.	4f/	.
=92	=92	=92
4G/]	2.d/	4b-\]
4A/	.	4a/
2.B-\	.	2.f/
.	4c/	.
.	2.d/	.
4A/	.	4g/
[2F/	.	[2a/
.	4e/	.
=93	=93	=93
2F/]	4f/	2a/]
.	4c/	.
2D/	1f	2f/
1C	.	1g
.	2e/	.
=94	=94	=94
0Fl	0fl	0fl
!!LO:LB:i:g=z
=95||	=95||	=95||
*>E	*>E	*>E
*clefGv2	*clefG2	*clefG2
*k[b-]	*k[]	*k[]
*M2/1	*M2/1	*M2/1
*met(C|)	*met(C|)	*met(C|)
!!!OMD: O dulcis
!!section: O dulcis
1.f	0r	0cc
2e\	.	.
=96	=96	=96
0d	0f	0dd
=97	=97	=97
0c	0g	1.ee
.	.	2cc\
=98	=98	=98
1r	1.a	0cc
[1f	.	.
.	4g/	.
.	4f/	.
=99	=99	=99
2f\]	0f	1.ff
2e\	.	.
2d\	.	.
2c\	.	2ee\
=100	=100	=100
2B-\	1.b-i	2.dd\
2A/	.	.
.	.	4cc\
1G	.	1dd
.	2a/	.
=101	=101	=101
1.c	2.g/	1.ee
.	4f/	.
.	1g	.
4B-\	.	4dd\
4A/	.	4cc\
=102	=102	=102
2.A/	[0a;l	2.cc\
4B-\	.	4dd\
2c\	.	2ee\
2d\	.	2ff\
=103	=103	=103
2c\	0a_	2ee\
1d	.	1ff
4c\	.	4ee\
4B-\	.	4dd\
=104	=104	=104
0A;l	0a]	0cc;l
!!LO:LB:i:g=z
=105||	=105||	=105||
*>F	*>F	*>F
*clefGv2	*clefG2	*clefG2
*k[b-]	*k[]	*k[]
*M2/1	*M2/1	*M2/1
*met(C|)	*met(C|)	*met(C|)
!!!ONB: O Jesu fili
!!section: O Jesu fili
1r	0r	2.a/
.	.	4g/
1f	.	4a/
.	.	4b-i\
.	.	[2cc\
=106	=106	=106
2e\	0r	2cc\]
2d\	.	4b-i\
.	.	4a/
1e	.	1g
=107	=107	=107
1f	2.a/	1.f
.	4g/	.
2r	4a/	.
.	4b-i\	.
2f\	[2cc\	4e/
.	.	4d/
=108	=108	=108
2.e\	2cc\]	1c
.	4b-i\	.
4d\	4a/	.
1e	1g	2r
.	.	2c/
=109	=109	=109
2f\	1.f	4d/
.	.	4e/
2.F/	.	4f/
.	.	4g/
.	.	4a/
4E/	.	4g/
4F/	4e/	[2a/
4G/	4d/	.
=110	=110	=110
4A/	1c	4a/]
4B-\	.	4g/
4c\	.	4a/
4d\	.	4f/
4e\	2r	1g
4f\	.	.
4g\	2c/	.
4e\	.	.
=111	=111	=111
1.f	4d/	4f/
.	4e/	4g/
.	4f/	4a/
.	4g/	4b-i\
.	4a/	4cc\
.	4g/	4b-\
4e\	[2a/	4cc\
4d\	.	4dd\
=112	=112	=112
1c	4a/]	2ee\
.	4g/	.
.	4a/	1ff
.	4f/	.
2r	1g	.
2c\	.	2ee\
=113	=113	=113
4d\	0f	4ff\
4c\	.	4ee\
4B-\	.	4dd\
4A/	.	4cc\
2B-\	.	2dd\
2A/	.	4cc\
.	.	4b-i\
=114	=114	=114
4f\	0f	4a/
4e\	.	4g/
4d\	.	1a
4c\	.	.
1d	.	.
.	.	4g/
.	.	4f/
=115	=115	=115
0cl	0gl	0el
==	==	==
*-	*-	*-
!!!RDF**kern: l=long note in original notation
!!!RDF**kern: i=editorial accidental
!!!ENC: Will Watson 
!!!END: 04/16/2011
!!!EED: Jesse Rodin
!!!EEV: 2012/04/24/
!!attribution-level@Jos: 1 (secure)
!!!ONB: Translated from MusicXML and edited on 2011/05/06/ by Craig Sapp
!!muse2ps: C^@{COM}\n@{SCT}^i2I100v85,90,150Q16
